X:1
T:Wie wenn der Adler - Schütz
T:James Gibb editions
%%score 1 2
L:1/8
Q:1/4=80
M:4/4
K:C
V:1 treble nm="S" snm="S"
V:2 bass nm="Midi_43"
V:1
"^Wie wenn der Adler sich aus \nseiner Klippe schwingt""^Heinrich Schütz\n(1585-1672)" G2 AB (cB) A2 | %1
w: Wie wenn der A\- * dler|
w: Der Him- mel lässt's * ge-|
w: Was Gott zu- sam\- * men-|
 GBAB c2 d2 | e4 G2 AB |[M:4/4] (cB) A2 GBAB | c2 d2 e4 | z2 e2 d>e c>d | BBcd G3 F | %7
w: sich aus sei- ner Klip- pe|schwingt, Den Fel- sen-|stein * ver- lässt und nach der|Son- ne dringt,|So ist auch it- zund|mir, im Fall ich se- hen|
w: schehn, kein Stern ist wi- der|dich, Der al- te|Sach\- * sen- held er- freu- et|des- sen sich.|Die Ro- sen in der|Luft, die bil- den uns schon|
w: fügt, trennt kei- nes Men- schen|Sinn. Wie er es|ha\- * ben will, so fällt auch|der Ge- winn.|Die Tu- gend wird von|ihm ab- son- der- lich be-|
 A2 z d ec c>B | B2 G2 G3 A | A3 G G2 z c | c3 d d4- | d2 d2 !fermata!c8 ||[M:4/4] G2 AB (cB) A2 | %13
w: kann, Wie du, du Für- sten-|paar, die Hand ge-|fes- selt an, die|Hand ge- fes\-|* selt an.|Die Ga- ben hast * du|
w: ein, Dass dei- ne Hei- raths-|zeit dir wer- de|glück- lich sein, dir|wer- de glück\-|* lich sein.|~~~Drumb freu- e dich * der|
w: lohnt, In der die Got- tes-|furcht als ei- ne|Wir- thin wohnt, als|ei- ne Wir\-|* thin wohnt.|Es glän- ze stets * dein|
 GBAB c2 d2 | e4 G2 AB |[M:4/4] (cB) A2 GBAB | c2 d2 e4 | z2 e2 d>e c>d | BBcd G3 F | %19
w: ja, die ir- gend auf der|Welt Uns kön- nen|füh\- * ren ein in des Ge-|lück- es Zelt.|Was an den Für- sten|sonst wird hoch und gross ge-|
w: Zeit, die du nun vor dir|hast, Und hof- fe,|wie * du thust, auf ei- nen|klei- nen Gast.|Denn dein ge- pflanz- ter|Stock wird auf das neu- e|
w: Gold an dei- ner rech- ten|Hand Und ma- che|sei- * nen Stamm noch mehr als|itzt be- kannt,|Wo ei- ne neu- e|Welt im Wach- se soll be-|
 A2 z d ec c>B | B2 G2 G3 A | A3 G G2 z c | c3 d d4- | d2 d2 !fermata!c8 |] %24
w: acht, Hat Gott, o Paar, an|dir itzt in die|En- ge bracht, itzt|in die En\-|* ge bracht.|
w: blühn Und umb den Pleis- sen-|Strom sein grü- nes|Laub an- ziehn, sein|grü- nes Laub|* an- ziehn.|
w: stehn, Da muss all- zeit der|Mond mit sei- ner|Sonn auf- gehn, mit|sei- ner Sonn|* auf- gehn.|
V:2
 C,2 B,,2 A,,2 D,2 | G,F, E,D, C,2 G,2 | C,4 C,2 B,,2 |[M:4/4] A,,2 D,2 G,F, E,D, | C,2 G,2 C,4 | %5
w: |||||
 z2 C2 B,2 A,2 | G,2 F,2 E,4 | D,2 B,,2 C,2 A,,2 | E,2 B,,2 C,2 E,2 | C,2 D,2 G,,2 E,2 | %10
w: |||||
 F,2 A,2 F,4 | G,4 !fermata!C,8 ||[M:4/4] C,2 B,,2 A,,2 D,2 | G,F, E,D, C,2 G,2 | C,4 C,2 B,,2 | %15
w: 6 * *|||||
[M:4/4] A,,2 D,2 G,F, E,D, | C,2 G,2 C,4 | z2 C2 B,2 A,2 | G,2 F,2 E,4 | D,2 B,,2 C,2 A,,2 | %20
w: |||||
 E,2 B,,2 C,2 E,2 | C,2 D,2 G,,2 E,2 | F,2 A,2 F,4 | G,4"^James Gibb editions" !fermata!C,8 |] %24
w: ||6 * *||

